!!!ONB: MCCC : IFC0055_03 : Extracted Monophonic Melody
!!!COM: Chopin, Frédéric
!!!OPR: Mazurkas
!!!OMV: 3
!!!SCT: Op.56
!!!ODT: 1843///
**kern
*thru
*staff1
*Ipiano
*k[f#c#g#d#]
*c#:
*M3/4
*>A
4gg#[
=1
4gg#]
8gg#
8bb
8aa
8gg#
=2
8ff##
8dd#
4.gg#
8ff#
=3
[2.ee
=4
2.ee]
=5
4cc#
8dd#
8ff#
8ee
8dd#
=6
8cc#
8a#
4.dd#
8cc#
=7
[2.b
=8
2.b]
=9
8b#
8cc#
8dd#
8ee
8ff#
8gg#
=10
12aa
12bb
12aa
8ff#
8ee
8dd#
8cc#
=11
8b#
8cc#
8dd#
8ee
8ff#
8gg#
=12
12aa
12bb
12aa
8ff#
8ee
8dd#
8cc#
=13
8dd#
8g#
4.gg#
8dd#
=14
8gg#
8dd#
4.gg#
8g#
=15
8dd#
8g#
4.gg#
8g#
=16
8dd#
8ee
4cc#
*>A
4gg#[
=18
4gg#]
8gg#
8bb
8aa
8gg#
=19
8ff##
8dd#
4.gg#
8ff#
=20
[2.ee
=21
2.ee]
=22
4cc#
8dd#
8ff#
8ee
8dd#
=23
8cc#
8a#
4.dd#
8cc#
=24
[2.b
=25
2.b]
=26
8b#
8cc#
8dd#
8ee
8ff#
8gg#
=27
12aa
12bb
12aa
8ff#
8ee
8dd#
8cc#
=28
8b#
8cc#
8dd#
8ee
8ff#
8gg#
=29
12aa
12bb
12aa
8ff#
8ee
8dd#
8cc#
=30
8dd#
8g#
4.gg#
8dd#
=31
8gg#
8dd#
4.gg#
8g#
=32
8dd#
8g#
4.gg#
8g#
=33
8dd#
8ee
4cc#
*>B
4r
=35
4A
4.cc#
8c#
=36
8cc#
16r
16cc#
4c#
4cc#
=37
8A
16r
16cc#
12cc#
12dd#
12cc#
8b
8a
=38
8b
16r
16b
4g#
4ee
=39
4A
4.a
8A
=40
8a
16r
16a
4A
4a
=41
8A
16r
16a
12a
12b
12a
8g#
8f#
=42
8g#
16r
16g#
4e
4cc#
=43
2b#
4a#
=44
4d#
4r
4b#
=45
2dd#
4cc#
=46
2b#
4cc#
=47
2b#
4a#
=48
4d#
4r
[4dd#
=49
4dd#]
4r
[4dd#
=50
4dd#]
4r
4dd#
=51
2.ee
=52
8dd#
8cc#
4b#
4dd#
=53
8dd#
8g#
4g#
8cc#
8b#
=54
8a#
8cc#
4a#
4b#
=55
4g#
8g#
8b
8a
8g#
=56
2cc#
4dd#
=57
2.gg#
=58
2.aa#
=59
8bb#
8aa#
4gg#
4dd#
=60
8b#
8g#
4dd#
4gg#
=61
8bb#
8aa#
4gg#
4dd#
=62
8b#
8g#
4dd#
4gg#
=63
8dd#
8cc#
4b
4g#
=64
8f#
8d#
4f#
4b
=65
8dd#
8cc#
4b
4g#
=66
8f#
8d#
4f#
4b
=67
8dd#
8cc#
4b
4g#
=68
8f#
8c#
4f#
4a#
=69
8dd#
8cc#
4b
4g#
=70
8f#
8c#
4f#
4a#
=71
8dd#
8cc#
4b
4g#
=72
8f#
8d#
4f#
4b
=73
8dd#
8cc#
4b
4g#
=74
8f#
8d#
4f#
4b
=75
8dd#
8cc#
4b
4g#
=76
8d#
8B
4g#
4b
=77
8dd#
8cc#
4b
4g#
=78
8d#
8B
4g#
4b
=79
2.cc#
=80
2dd#
8.cc#
16dd#
=81
8cc#
8b
4.gg#
8ff#
=82
8ff#
8ff
2ee
=83
8dd#
8cc#
4b#
8cc#
8dd#
=84
2g#
4cc#
=85
8dd#
8cc#
4b#
8cc#
8dd#
=86
2ff#
4ee
=87
4g#
2b
=88
8a#
8b
4cc#
8g#
8a#
=89
2f#
4b
=90
8a#
8b
4cc#
8g#
8a#
=91
8f#
8dd#
4cc#
8g#
8a#
=92
8f#
8dd#
8cc#
8g#
8a#
8g#
=93
8f#
8dd#
4cc#
4f#
=94
4.gg#
8ff#
8ff
8ee
=95
8dd#
8cc#
4b
4g#
=96
8f#
8d#
4f#
4b
=97
8dd#
8cc#
4b
4g#
=98
8f#
8d#
4f#
4b
=99
8dd#
8cc#
4b
4g#
=100
8f#
8c#
4f#
4a#
=101
8dd#
8cc#
4b
4g#
=102
8f#
8c#
4f#
4a#
=103
8dd#
8cc#
4b
8a#
8g#
=104
8f#
8d#
4f#
4b
=105
8dd#
8cc#
12b
12cc#
12b
8a#
8g#
=106
8f#
8d#
4f#
4b
=107
8dd#
8cc#
4b#
4g#
=108
8d#
8B#
4g#
4b#
=109
8dd#
8cc#
4.b#
8cc#
=110
8.ee#
16dd#
[2gg#
=111
4gg#]
8gg#
8bb
8aa
8gg#
=112
8ff##
8dd#
4.gg#
8ff#
=113
[2.ee
=114
2.ee]
=115
4cc#
8dd#
8ff#
8ee
8dd#
=116
8cc#
8a#
4.dd#
8cc#
=117
[2.b
=118
2.b]
=119
8b#
8cc#
8dd#
8ee
8ff#
8gg#
=120
12aa
12bb
12aa
8ff#
8ee
8dd#
8cc#
=121
8b#
8cc#
8dd#
8ee
8ff#
8gg#
=122
12aa
12bb
12aa
8ff#
8ee
8dd#
8cc#
=123
8dd#
8g#
4.gg#
8dd#
=124
8gg#
8dd#
4.gg#
8g#
=125
8dd#
8g#
4.gg#
8g#
=126
8dd#
8ee
4cc#
4r
=127
4A
4.cc#
8c#
=128
8cc#
16r
16cc#
4c#
4cc#
=129
8A
16r
16cc#
12cc#
12dd#
12cc#
8b
8a
=130
8b
16r
16b
4g#
4ee
=131
4A
4.a
8A
=132
8a
16r
16a
4A
4a
=133
8A
16r
16a
12a
12b
12a
8g#
8f#
=134
8g#
16r
16g#
4e
4cc#
=135
2b#
4a#
=136
4d#
4r
4b#
=137
2dd#
4cc#
=138
2b#
4cc#
=139
2b#
4a#
=140
4d#
4r
[4dd#
=141
4dd#]
4r
[4dd#
=142
4dd#]
4r
4dd#
=143
2.ee
=144
8dd#
8cc#
4b#
4dd#
=145
8dd#
8g#
4g#
8cc#
8b#
=146
8a#
8cc#
4a#
4b#
=147
4g#
8g#
8b
8a
8g#
=148
2cc#
4dd#
=149
2.gg#
=150
2.aa#
=151
4bb#
8dd#
8ee
8ff#
8gg#
=152
12aa
12bb
12aa
4bb#
4ccc#
=153
8b#
8ddd#
8dd#
8ee
8ff#
8gg#
=154
12aa
12bb
12aa
4bb#
4ccc#
=155
8b#
8ddd#
8dd#
8ee
8ff#
8gg#
=156
12aa
12bb
12aa
4bb#
4ccc#
=157
12ee
12ff#
12ee
4gg#
4aa
=158
12cc#
12dd#
12cc#
4dd#
4ee
=159
8c#
4B#
8b#
8a#
8b#
=160
8a#
8g#
4.ee
8dd#
=161
4dd#
4cc#
[4c#
=162
4c#]
8.c#
16d#
4c#
=163
4r
2c#
=164
8b
8a
4.ff#
8ee
=165
4ee
4dd#
4d#
=166
4r
8.e
16f#
4e
=167
4r
8f#
8g#
8.f#
16dd#
=168
4dd#
8.d#
16e
4d#
=169
4r
8f#
8g#
8.f#
16dd#
=170
4dd#
8.d#
16e
4d#
=171
4r
8f#
8g#
8f#
8B#
=172
8d#
8B#
4.e
8d#
=173
8c#
8B#
8c#
8d#
8f#
8e
=174
8d#
8c#
8B#
8d#
8c#
8A
=175
4e
4r
4c#
=176
8c#
8d
4.d#
8c#
=177
4r
4r
4d#
=178
8e
8f
4.f#
8e
=179
4f#
4.g
8g
=180
4a
4.a#
8b
=181
4b#
4.cc#
8cc##
=182
4dd#
4.ee
8ee#
=183
4ff#
4r
4f#
=184
8g
8g#
4.a
8g
=185
4f
2d
=186
8a#
8b
4.b#
8a#
=187
4b#
4.cc#
8cc##
=188
4dd#
4.ee
8ee#
=189
4ff#
2gg#
=190
8ff#
16r
16gg#
2aa
=191
4.gg#
8ff##
8gg#
8aa
=192
8gg#
8ff##
4gg#
4aa
=193
4.gg#
8ff##
8gg#
8aa
=194
8gg#
8ff##
4gg#
4aa
=195
4.gg#
8ff##
8gg#
8ee
=196
8dd#
8cc#
4ee
4b#
=197
4.dd#
8cc#
8e
8a
=198
8g#
8G#
4e
4d#
=199
2.c#
=200
4d#
4d#
4g#
=201
[2g#
8g#]
8e
=202
4d#
4d#
4g#
=203
4.g#
8d#
8f#
8e
=204
4d#
4d#
4g#
=205
8g#
4.cc#
8cc#
8e
=206
4d#
4d#
4e
=207
8c#
8g#
4.cc#
8g#
=208
8cc#
8g#
4.cc#
8c#
=209
8g#
8c#
4cc#
8r
16r
16g#
=210
4g#
4c#
4r
==
*-
